packages/core/src/svgs/tokens/mono/MF.svg

<svg width="24" height="24" viewBox="0 0 24 24" fill="none" xmlns="http://www.w3.org/2000/svg">
<path fill-rule="evenodd" clip-rule="evenodd" d="M17.3562 2H6.64373C4.06248 2 2 4.14374 2 6.83122V17.1687C2 19.85 4.10623 22 6.64373 22H17.3562C19.9375 22 22 19.8062 22 17.1687V6.83122C22 4.14998 19.8937 2 17.3562 2ZM8.41237 9.20623C7.96636 9.118 7.57192 8.8604 7.31199 8.4874C7.05206 8.11442 6.9469 7.65515 7.01862 7.20622C7.04987 6.98331 7.12524 6.76888 7.24031 6.57543C7.35539 6.38199 7.50787 6.21343 7.68885 6.07959C7.86982 5.94576 8.07564 5.84933 8.29431 5.79596C8.51297 5.74258 8.74009 5.73332 8.96237 5.76873L17.4624 7.29372C17.9084 7.38186 18.3028 7.63953 18.5627 8.01253C18.8226 8.38551 18.9277 8.84478 18.8561 9.29373C18.8248 9.51656 18.7495 9.73108 18.6343 9.92445C18.5193 10.118 18.3669 10.2866 18.1859 10.4203C18.0049 10.5542 17.799 10.6506 17.5804 10.7039C17.3618 10.7573 17.1346 10.7666 16.9123 10.7312L8.41237 9.20623ZM7.73068 14.0808C7.29661 13.9976 6.91331 13.7454 6.6649 13.3798C6.41649 13.0144 6.32326 12.5651 6.40567 12.1309C6.44116 11.9159 6.51901 11.7102 6.6347 11.5257C6.75037 11.3411 6.90159 11.1814 7.07953 11.0558C7.25748 10.9303 7.45861 10.8412 7.67125 10.7941C7.88389 10.7468 8.10379 10.7423 8.31816 10.7809L13.7619 11.7933C14.6806 11.9622 15.2619 12.8558 15.0932 13.7434C15.0576 13.9582 14.9798 14.164 14.8641 14.3486C14.7485 14.5331 14.5972 14.6928 14.4193 14.8185C14.2414 14.944 14.0401 15.033 13.8275 15.0802C13.6149 15.1273 13.395 15.1319 13.1806 15.0934L7.73068 14.0808ZM6.04348 17.8336C6.29626 18.2034 6.68482 18.4586 7.12467 18.5435L8.84341 18.8497C9.74348 19.0184 10.5622 18.3747 10.7246 17.4309C10.8053 16.9903 10.7086 16.5356 10.4559 16.1658C10.203 15.796 9.8145 15.5409 9.37467 15.4559L7.65591 15.1496C6.75591 14.9809 5.93717 15.6248 5.77468 16.5685C5.69408 17.0092 5.79068 17.4637 6.04348 17.8336Z" fill="white"/>
</svg>

<svg xmlns="http://www.w3.org/2000/svg" width="24" height="24" fill="none" viewBox="0 0 24 24">
    <path fill="#fff" fill-rule="evenodd" d="M17.356 2H6.644C4.062 2 2 4.144 2 6.831V17.17C2 19.85 4.106 22 6.644 22h10.712C19.937 22 22 19.806 22 17.169V6.83C22 4.15 19.894 2 17.356 2M8.412 9.206a1.757 1.757 0 0 1-1.393-2A1.694 1.694 0 0 1 8.962 5.77l8.5 1.525a1.756 1.756 0 0 1 1.394 2 1.69 1.69 0 0 1-1.944 1.437zm-.681 4.875a1.67 1.67 0 0 1-1.325-1.95 1.643 1.643 0 0 1 1.912-1.35l5.444 1.012a1.67 1.67 0 0 1 1.331 1.95 1.647 1.647 0 0 1-1.912 1.35zm-1.688 3.753a1.7 1.7 0 0 0 1.082.71l1.718.306c.9.168 1.72-.475 1.882-1.42a1.7 1.7 0 0 0-1.35-1.974l-1.72-.306c-.9-.17-1.718.475-1.88 1.418a1.7 1.7 0 0 0 .268 1.266" clip-rule="evenodd"/>
</svg>
